src/icons/svg/change-password.svg

<?xml version="1.0" encoding="UTF-8"?>
<svg width="162px" height="176px" viewBox="0 0 162 176" version="1.1" xmlns="http://www.w3.org/2000/svg" xmlns:xlink="http://www.w3.org/1999/xlink">
    <title>编组</title>
    <g id="页面-1" stroke="none" stroke-width="1" fill="none" fill-rule="evenodd">
        <g id="编组" fill="#2C2C2C" fill-rule="nonzero">
            <path d="M145.273438,109.375 C142.304688,109.375 139.882812,111.796875 139.882812,114.765625 L139.882812,164.316406 L10.78125,164.316406 L10.78125,87.3046875 L91.1132813,87.3046875 C94.0820313,87.3046875 96.5039063,84.8828125 96.5039063,81.9140625 C96.5039063,78.9453125 94.0820313,76.5234375 91.1132813,76.5234375 L31.25,76.5234375 L31.25,50.4296875 C31.25,28.5742188 49.0234375,10.8007813 70.8984375,10.8007813 L78.90625,10.8007813 C100.761719,10.8007813 118.535156,28.5742188 118.535156,50.4296875 L118.535156,54.609375 L118.554688,54.609375 C118.730469,57.421875 121.074219,59.6484375 123.925781,59.6484375 C126.894531,59.6484375 129.316406,57.2460938 129.316406,54.2578125 C129.316406,54.1210938 129.316406,53.984375 129.296875,53.8476563 L129.296875,50.4101563 C129.296875,22.6757813 106.621094,0 78.8867188,0 L70.8789063,0 C43.1445313,0 20.46875,22.6757813 20.46875,50.4101563 L20.46875,76.5039063 L5.390625,76.5039063 C2.421875,76.5039063 0,78.9257812 0,81.8945313 L0,170 C0,172.96875 2.421875,175.390625 5.390625,175.390625 C6.03515625,175.390625 6.66015625,175.273438 7.24609375,175.058594 L143.417969,175.058594 C144.003906,175.273438 144.609375,175.390625 145.273438,175.390625 C148.242188,175.390625 150.664063,172.96875 150.664063,170 L150.664063,114.746094 C150.644531,111.796875 148.222656,109.375 145.273438,109.375 Z" id="路径"></path>
            <path d="M159.648438,56.9335938 C157.558594,54.84375 154.121094,54.84375 152.03125,56.9335938 L76.8945312,132.050781 C74.8046875,134.140625 74.8046875,137.578125 76.8945312,139.667969 C78.984375,141.757813 82.421875,141.757813 84.5117188,139.667969 L159.628906,64.5507813 C161.738281,62.4414063 161.738281,59.0234375 159.648438,56.9335938 Z" id="路径"></path>
        </g>
    </g>
</svg>

<svg width="162" height="176" xmlns="http://www.w3.org/2000/svg"><g fill="currentColor" fill-rule="nonzero"><path d="M145.273 109.375a5.401 5.401 0 0 0-5.39 5.39v49.551H10.78V87.305h80.332a5.401 5.401 0 0 0 5.39-5.39 5.401 5.401 0 0 0-5.39-5.392H31.25V50.43c0-21.856 17.773-39.63 39.648-39.63h8.008c21.856 0 39.63 17.774 39.63 39.63v4.18h.019a5.385 5.385 0 0 0 10.761-.352c0-.137 0-.274-.02-.41V50.41c0-27.734-22.675-50.41-50.41-50.41H70.88c-27.734 0-50.41 22.676-50.41 50.41v26.094H5.39A5.401 5.401 0 0 0 0 81.894V170a5.401 5.401 0 0 0 5.39 5.39 5.38 5.38 0 0 0 1.856-.331h136.172a5.299 5.299 0 0 0 1.855.332 5.401 5.401 0 0 0 5.391-5.391v-55.254c-.02-2.95-2.441-5.371-5.39-5.371z"/><path d="M159.648 56.934c-2.09-2.09-5.527-2.09-7.617 0L76.895 132.05c-2.09 2.09-2.09 5.527 0 7.617s5.527 2.09 7.617 0l75.117-75.117c2.11-2.11 2.11-5.528.02-7.617z"/></g></svg>
